src/assets/svg/ic_target.svg

<svg xmlns="http://www.w3.org/2000/svg" width="16" height="16">
    <path d="M4 8v1H0V8zm4-7H7v4h1zm0 11H7v4h1zm3-4v1h4V8zM9 4h3v3h2V2H9zM3 7V4h3V2H1v5zm3 6H3v-3H1v5h5zm6-3v3H9v2h5v-5z"/>
</svg>

<svg id="icons" xmlns="http://www.w3.org/2000/svg" width="16" height="16" viewBox="0 0 16 16"><title>target</title>
<path
     d="M 4,8 4,9 0,9 0,8 Z M 8,1 7,1 7,5 8,5 Z m 0,11 -1,0 0,4 1,0 z m 3,-4 0,1 4,0 0,-1 z M 9,4 12,4 12,7 14,7 14,2 9,2 Z M 3,7 3,4 6,4 6,2 1,2 1,7 Z m 3,6 -3,0 0,-3 -2,0 0,5 5,0 z m 6,-3 0,3 -3,0 0,2 5,0 0,-5 z"/></svg>
